.local/share/icons/Gruvbox-Plus-Dark/panel/16/nylas-tray-full-newitems.svg

<svg xmlns="http://www.w3.org/2000/svg" width="16" height="16" version="1.1">
 <defs>
  <style id="current-color-scheme" type="text/css">
   .ColorScheme-Text { color:#ebdbb2; } .ColorScheme-Highlight { color:#458588; }
  </style>
 </defs>
 <path style="fill:currentColor;fill-rule:evenodd" class="ColorScheme-Text" d="M 7.9998,0.99999 V 3.4707 L 13,6.7656 V 4.2949 Z M 2.7499,1.5957 C 2.3359,1.5957 1.9999,1.9634 1.9999,2.418 V 3.4707 L 6.9998,6.7656 V 4.2949 C 5.6252,3.4319 4.4954,2.564 3.1229,1.7051 3.0097,1.6334 2.8804,1.5957 2.7499,1.5957 Z M 1.9999,5.1172 V 7.5879 L 6.9998,10.883 V 8.4121 Z M 7.9998,5.1172 V 7.5879 L 13,10.883 V 8.4121 Z M 1.9999,9.2344 V 11.705 L 7.2498,15 6.9998,12.529 Z"/>
 <path style="fill:currentColor;fill-rule:evenodd" class="ColorScheme-Highlight" d="M 8,9.2353 V 11.704 C 9.3748,12.567 10.506,13.437 11.878,14.296 11.991,14.368 12.12,14.405 12.25,14.405 12.664,14.405 13,14.036 13,13.581 V 12.529 Z"/>
</svg>

<svg width="16" height="16" version="1.1" xmlns="http://www.w3.org/2000/svg">
  <defs>
    <style id="current-color-scheme" type="text/css">.ColorScheme-Text { color:#ebdbb2; } .ColorScheme-Highlight { color:#458588; } .ColorScheme-NeutralText { color:#fe8019; } .ColorScheme-PositiveText { color:#689d6a; } .ColorScheme-NegativeText { color:#fb4934; }</style>
  </defs>
  <path class="ColorScheme-Text" d="m8 1v2.471l5 3.295v-2.471zm-6 1.418v1.053l5 3.295v-2.471c-1.375-0.863-2.504-1.731-3.877-2.59-0.4776-0.3025-1.123 0.06085-1.123 0.713zm0 2.7v2.471l5 3.295v-2.471zm6 0v2.471l5 3.295v-2.471zm-6 4.117v2.471l5 3.294v-2.47z" fill="currentColor"/>
  <path class="ColorScheme-Highlight" d="m8 9.235v2.469c1.375 0.863 2.506 1.733 3.878 2.592 0.4731 0.3015 1.122-0.0594 1.122-0.715v-1.052z" fill="currentColor"/>
</svg>
